!!!OTL: Die dienende Schwester.
!!!OTL-incipit: Es wohnt wohl ein Koenig sich ane dem Rhein,
!!!ARE: Europa, Mitteleuropa, Deutschland (BRD), Rheinland
!!!YOR: 4, S. 104
!!    1840 gedruckt in Berlin
!!!SCT: Q0075E
!!!YEM: Copyright 1995, estate of Helmut Schaffrath.
**kern	**text
*ICvox	*
*M2/4	*
*k[b-]	*
*F:	*
!LO:TX:a:t=601 Rheinland	!
{8g	Es
=1	=1
4cc	wohnt
8g	wohl
8g	ein
=2	=2
8ccL	Kö-
8b-J	.
8a	-nig
8g	ſich
=3	=3
4f	a-
8g	-ne
8g	dem
=4	=4
4f	Rhein,
8r}	.
{8a	der
=5	=5
4g	hatt'
8g	ſich
8g	drei
=6	=6
4d	liebliche
8e	.
8e	.
=7	=7
(4f	Töchter-
8e)	.
8d	.
=8	=8
4c	-lein,
8r}	.
{8c	der
=9	=9
4f	hatt'
4f	drei
=10	=10
4g	lieb-
8cc	-liche
8cc	.
=11	=11
4a	Töch-
8gL	-ter-
8aJ	.
=12	=12
4f	-lein.
8r}	.
==	==
!!!AGN: Ballade, Adelige als Dienstmagd, Tod; Kinder - Spiel, Tanz
!!!ONB: ESAC (Essen Associative Code) Database: BALLADE
!!!AMT: simple duple
!!!AIN: vox
!!!EED: Helmut Schaffrath
!!!EEV: 1.0
!!!source: Deutsche Volkslieder mit ihren Melodien. Herausgegeben vom Deutschen Volksliedarchiv. Vierter Band. Berlin 1959.
!!!page: 104
!!!ENC: Anna Maria Matuszewska
!!!EEV: 2025/02/27
*-	*-
